X:1
T:O Lux Beata Trinitas
T:Johann Stadlmayr edit, Amen BMarble
T:O Lux Beata Trinitas
T:Copyright © 2015 by The Choral Public Domain Library. Edition may be freely distributed, duplicated, performed or recorded.
T:Copyright © 2015 by The Choral Public Domain Library. Edition may be freely distributed, duplicated, performed or recorded.
T:Copyright © 2015 by The Choral Public Domain Library. Edition may be freely distributed, duplicated, performed or recorded.
T:Copyright © 2015 by The Choral Public Domain Library. Edition may be freely distributed, duplicated, performed or recorded.
T:Copyright © 2015 by The Choral Public Domain Library. Edition may be freely distributed, duplicated, performed or recorded.
T:Copyright © 2015 by The Choral Public Domain Library. Edition may be freely distributed, duplicated, performed or recorded.
C:Johann Stadlmayr
C:edit, Amen BMarble
Z:Copyright © 2015 by The Choral Public Domain Library. Edition may be freely distributed, duplicated, performed or recorded.
%%score [ 1 2 3 4 ]
L:1/8
Q:1/2=56
M:4/4
K:D
V:1 treble nm="Soprano" snm="S."
V:2 treble nm="Alto" snm="A."
V:3 treble-8 transpose=-12 nm="Tenor" snm="T."
V:4 bass nm="Baritone" snm="Bar."
V:1
 z30 | z30 | z34 | z26 ||[M:4/2][Q:1/2=92] z16 | z16 | (A8 B8) | (A8 G4) E4 | F8 G8 | A8 B8- | %10
w: ||||||2.~Te _|ma- * ne|lau- dum|car- *|
 B4 A8 ^G4 | A16 | z8 z4 A4 | A4 ^G4 A4 B4 | (c6 B2 A4) A4 | ^G4 B4 d4 (c2 d2) | B8 A4 A4- | %17
w: * * mi-|ne,|te|de- pre- ce- mur|ve- * * spe-|re, te nos- tra _|sup- plex glo-|
 A4 ^G4 A4 (=G2 A2) | B4 =c8 B4 | B16 | z16 | (A8 B8) | (A8 G4) E4 | F8 G8 | (A8 B6) B2 | A16 || %26
w: * ri- a, sup- *|plex glo- ri-|a||per _|cun- * cta|lau- det|sae- * cu-|la.|
[Q:1/2=56] z30 | z30 | z34 | z26 ||[M:3/1] A4 (d6 c2 B2 A2) (G2 F2 E4) | E16 |] %32
w: ||||A- men, _ _ _ a- * *|men.|
V:2
 z30 | z30 | z34 | z26 ||[M:4/2] (E8 F8) | (E8 D4) B,4 | C8 D4 E4- | (E4 D8) B,4 | C8 z4 E4 | %9
w: ||||2.~Te _|ma- * ne|lau- dum car-|* * mi-|ne, te|
 C4 F4 B,8 | C8 (D6 E2 | F4) E4 D4 F4 | F4 E4 F8- | (F4 E2 D2 C8) | C4 E8 ^D4 | E8 z8 | %16
w: ma- ne lau-|dum car- *|* mi- ne, te|de- pre- ce-||mur ve- spe-|re,|
 z4 D4 F4 (E2 F2) | D4 B,4 (E6 F2 | G8) F8 | ^G8 z4 E4- | (E4 F8) D4- | D4 C4 D4 G4 | %22
w: te nos- tra _|sup- plex glo- *|* ri-|a per|_ _ cun-|* cta lau- det|
 (F6 E2 D4) B,4 | C4 C4 D4 E4 | C4 C4 F4 E4 | C16 || z30 | z30 | z34 | z26 || %30
w: sae- * * cu-|la, per cun- cta|lau- det sae- cu-|la.|||||
[M:3/1] (E2 F2 G8) F4 (E2 D2 C2 B,2) | C16 |] %32
w: A- * * men, a- * * *|men.|
V:3
"^Sunday Vespers hymn" (G2 A2) (G2 F2) D2 E2 F2 (G2 A2 B2) A2 G8 | %1
w: 1.~O _ lux _ be- a- ta Tri- * * ni- tas|
 (G2 A2) (G2 F2) D2 E2 F2 (G2 A2 B2) A2 G8 | A2 d2 (c2 d2) B2 (A2 G2) (A2 B2) (A2 G2) (F2 E2 D8) | %3
w: et _ prin- * ci- pa- lis u- * * ni- tas,|jam sol re- * ce- dit _ i- * gne- * us: _ _|
 G2 (F2 G2) E2 F2 G2 (A2 B2) B2 A8 ||[M:4/2] z16 | (A8 B8) | (A8 G4) E4 | F8 G8 | (A8 B6) B2 | %9
w: in- fun- * de lu- men cor- * di- bus.||2.~Te _|ma- * ne|lau- dum|car- * mi-|
 A4 d8 e4- | e4 (f6 e2 d4-) | d4 c4 d4 d4 | d4 c4 (d6 c2 | B8) A8 | A8 A8 | B4 ^G4 B4 (A2 B2) | %16
w: ne, lau- dum|_ car- * *|* mi- ne, te|de- pre- ce- *|* mur|ve- spe-|re, te nos- tra _|
 =G8 F4 A4 | d4 d4 c4 B4 | e12 ^d4 | e16 | (^c8 d8) | e8 B8 | z4 (A4 B8) | (A8 G4) E4 | %24
w: sup- plex, te|nos- tra sup- plex|glo- ri-|a|per _|cun- cta,|per _|cun- * cta|
 F4 A4 A4 ^G4 | A16 || (G2 A2) (G2 F2) D2 E2 F2 (G2 A2 B2) A2 G8 | %27
w: lau- det sae- cu-|la.|3.~Chri- * stum _ ro- ga- mus et _ _ Pa- trem,|
 (G2 A2) (G2 F2) D2 E2 F2 (G2 A2 B2) A2 G8 | A2 d2 (c2 d2) B2 (A2 G2) (A2 B2) (A2 G2) (F2 E2 D8) | %29
w: Chri- * sti _ Pa- tris- que Spi- * * ri- tum;|u- num po- * tens per _ o- * mni- * a, _ _|
 G2 (F2 G2) E2 F2 G2 (A2 B2) B2 A8 ||[M:3/1] A4 B4 A12 ^G4 | A16 |] %32
w: fo- ve _ pre- can- tes Tri- * ni- tas.|A- * * *|men.|
V:4
 z30 | z30 | z34 | z26 ||[M:4/2] z16 | z16 | z16 | (A,8 B,8) | (A,8 G,4) E,4 | F,8 G,8 | %10
w: |||||||2.~Te _|ma- * ne|lau- dum|
 (A,8 B,6) B,2 | A,8 z8 | z8 z4 D,4 | D,4 E,4 F,4 G,4 | (A,6 G,2 F,4) F,4 | E,8 z8 | %16
w: car- * mi-|ne,|te|de- pre- ce- mur|ve- * * spe-|re,|
 z4 B,,4 D,4 (C,2 D,2) | B,,8 A,,4 E,4- | (E,2 D,2 =C,2 B,,2 A,,4) B,,4 | E,16 | z4 (A,4 B,8) | %21
w: te nos- tra _|sup- plex glo-|* * * * * ri-|a|per _|
 (A,8 G,4) E,4 | F,8 G,8 | A,8 B,8 | A,2 G,2 F,2 E,2 D,4 E,4 | A,,16 || z30 | z30 | z34 | z26 || %30
w: cun- * cta|lau- det|sae- *|* * * * * cu-|la.|||||
[M:3/1] (A,4 G,4) D,8 E,8 | A,,16 |] %32
w: A- * men, a-|men.|

